images/nav-social/inst.svg

<svg width="16" height="16" fill="none" xmlns="http://www.w3.org/2000/svg"><path d="M14.7 1.3c-.9-.9-2-1.3-3.4-1.3H4.7C1.9 0 0 1.9 0 4.7v6.6c0 1.4.4 2.6 1.4 3.4.9.9 2 1.3 3.3 1.3h6.6c1.4 0 2.6-.4 3.4-1.3.8-.9 1.3-2 1.3-3.4V4.7c0-1.4-.4-2.6-1.3-3.4ZM8 12.1c-2.2 0-4.1-1.8-4.1-4.1S5.8 3.9 8 3.9c2.2 0 4.1 1.8 4.1 4.1s-1.9 4.1-4.1 4.1Zm4.6-7.4c-.7 0-1.3-.5-1.3-1.3s.5-1.3 1.3-1.3c.7 0 1.3.6 1.3 1.3 0 .7-.6 1.3-1.3 1.3Z" fill="#444"/></svg>

<svg width="16" height="16" viewBox="0 0 16 16" fill="none" xmlns="http://www.w3.org/2000/svg">
<path d="M8 10C9.10457 10 10 9.10457 10 8C10 6.89543 9.10457 6 8 6C6.89543 6 6 6.89543 6 8C6 9.10457 6.89543 10 8 10Z" fill="#444444"/>
<path d="M14.7 1.3C13.8 0.4 12.7 0 11.3 0H4.7C1.9 0 0 1.9 0 4.7V11.3C0 12.7 0.4 13.9 1.4 14.7C2.3 15.6 3.4 16 4.7 16H11.3C12.7 16 13.9 15.6 14.7 14.7C15.5 13.8 16 12.7 16 11.3V4.7C16 3.3 15.6 2.1 14.7 1.3ZM8 12.1C5.8 12.1 3.9 10.3 3.9 8C3.9 5.7 5.8 3.9 8 3.9C10.2 3.9 12.1 5.7 12.1 8C12.1 10.3 10.2 12.1 8 12.1ZM12.6 4.7C11.9 4.7 11.3 4.2 11.3 3.4C11.3 2.6 11.8 2.1 12.6 2.1C13.3 2.1 13.9 2.7 13.9 3.4C13.9 4.1 13.3 4.7 12.6 4.7Z" fill="#444444"/>
</svg>
